; generated by Slic3r 1.3.0-dev on 2017-11-04 at 09:53:53

; external perimeters extrusion width = 0.40mm (1.43mm^3/s)
; perimeters extrusion width = 0.67mm (5.03mm^3/s)
; infill extrusion width = 0.67mm (6.28mm^3/s)
; solid infill extrusion width = 0.67mm (2.51mm^3/s)
; top infill extrusion width = 0.67mm (1.88mm^3/s)

M104 S200 ; set temperature
G28 ; home all axes
G1 Z5 F5000 ; lift nozzle

; Filament gcode

M109 S200 ; set temperature and wait for it to be reached
G21 ; set units to millimeters
G90 ; use absolute coordinates
M82 ; use absolute distances for extrusion
G92 E0
G1 Z0.180 F7800.000
G1 E-2.00000 F2400.00000
G92 E0
G1 X68.157 Y67.804 F7800.000
G1 E2.00000 F2400.00000
G1 F1800
G1 X68.950 Y67.039 E2.05291
G1 X69.762 Y66.292 E2.10584
G1 X70.592 Y65.566 E2.15875
G1 X71.440 Y64.860 E2.21173
G1 X72.303 Y64.175 E2.26463
G1 X73.184 Y63.511 E2.31758
G1 X74.081 Y62.869 E2.37051
G1 X74.993 Y62.249 E2.42344
G1 X75.919 Y61.651 E2.47636
G1 X76.861 Y61.076 E2.52930
G1 X77.815 Y60.524 E2.58223
G1 X78.783 Y59.996 E2.63515
G1 X79.763 Y59.491 E2.68806
G1 X80.756 Y59.010 E2.74101
G1 X81.807 Y58.533 E2.79642
G1 X82.822 Y58.102 E2.84934
G1 X83.848 Y57.696 E2.90230
G1 X84.883 Y57.315 E2.95526
G1 X85.926 Y56.960 E3.00813
G1 X86.979 Y56.630 E3.06111
G1 X88.039 Y56.326 E3.11402
G1 X89.106 Y56.047 E3.16697
G1 X90.179 Y55.795 E3.21987
G1 X91.259 Y55.569 E3.27280
G1 X92.344 Y55.369 E3.32574
G1 X93.432 Y55.196 E3.37865
G1 X94.525 Y55.049 E3.43160
G1 X95.621 Y54.930 E3.48450
G1 X96.721 Y54.836 E3.53746
G1 X97.822 Y54.770 E3.59042
G1 X98.922 Y54.730 E3.64327
G1 X100.026 Y54.717 E3.69622
G1 X101.129 Y54.731 E3.74918
G1 X102.231 Y54.772 E3.80212
G1 X103.331 Y54.840 E3.85501
G1 X104.430 Y54.935 E3.90797
G1 X105.526 Y55.056 E3.96087
G1 X106.639 Y55.207 E4.01480
G1 X108.199 Y55.466 E4.09072
G1 X109.281 Y55.679 E4.14363
G1 X110.358 Y55.918 E4.19657
G1 X111.429 Y56.183 E4.24953
G1 X112.492 Y56.475 E4.30244
G1 X113.548 Y56.791 E4.35535
G1 X114.596 Y57.134 E4.40828
G1 X115.636 Y57.502 E4.46122
G1 X116.666 Y57.896 E4.51416
G1 X117.686 Y58.314 E4.56705
G1 X118.696 Y58.757 E4.62001
G1 X119.695 Y59.225 E4.67295
G1 X120.682 Y59.717 E4.72589
G1 X121.657 Y60.232 E4.77881
G1 X122.619 Y60.771 E4.83173
G1 X123.567 Y61.333 E4.88465
G1 X124.502 Y61.919 E4.93759
G1 X125.422 Y62.527 E4.99051
G1 X126.327 Y63.157 E5.04344
G1 X127.216 Y63.809 E5.09637
G1 X128.090 Y64.483 E5.14932
G1 X128.946 Y65.177 E5.20222
G1 X129.786 Y65.893 E5.25520
G1 X130.608 Y66.628 E5.30812
G1 X131.411 Y67.383 E5.36105
G1 X132.196 Y68.157 E5.41396
G1 X132.961 Y68.951 E5.46687
G1 X133.708 Y69.762 E5.51979
G1 X134.434 Y70.592 E5.57270
G1 X135.140 Y71.440 E5.62568
G1 X135.825 Y72.303 E5.67858
G1 X136.489 Y73.184 E5.73153
G1 X137.131 Y74.081 E5.78446
G1 X137.751 Y74.993 E5.83739
G1 X138.349 Y75.920 E5.89035
G1 X138.924 Y76.861 E5.94325
G1 X139.476 Y77.815 E5.99618
G1 X140.004 Y78.783 E6.04909
G1 X140.509 Y79.763 E6.10201
G1 X140.990 Y80.756 E6.15496
G1 X141.467 Y81.807 E6.21038
G1 X141.898 Y82.822 E6.26330
G1 X142.304 Y83.848 E6.31626
G1 X142.685 Y84.883 E6.36921
G1 X143.040 Y85.926 E6.42208
G1 X143.370 Y86.979 E6.47506
G1 X143.674 Y88.039 E6.52797
G1 X143.953 Y89.106 E6.58091
G1 X144.205 Y90.180 E6.63383
G1 X144.431 Y91.259 E6.68675
G1 X144.631 Y92.344 E6.73969
G1 X144.804 Y93.432 E6.79261
G1 X144.951 Y94.526 E6.84556
G1 X145.070 Y95.621 E6.89845
G1 X145.164 Y96.721 E6.95141
G1 X145.230 Y97.822 E7.00437
G1 X145.270 Y98.923 E7.05723
G1 X145.283 Y100.026 E7.11018
G1 X145.269 Y101.129 E7.16313
G1 X145.228 Y102.231 E7.21608
G1 X145.160 Y103.331 E7.26895
G1 X145.065 Y104.430 E7.32192
G1 X144.944 Y105.526 E7.37482
G1 X144.796 Y106.619 E7.42777
G1 X144.622 Y107.708 E7.48071
G1 X144.321 Y109.281 E7.55758
G1 X144.082 Y110.358 E7.61052
G1 X143.817 Y111.429 E7.66348
G1 X143.525 Y112.493 E7.71641
G1 X143.209 Y113.548 E7.76930
G1 X142.866 Y114.596 E7.82223
G1 X142.498 Y115.636 E7.87517
G1 X142.104 Y116.667 E7.92814
G1 X141.686 Y117.686 E7.98100
G1 X141.243 Y118.696 E8.03396
G1 X140.775 Y119.695 E8.08692
G1 X140.283 Y120.683 E8.13987
G1 X139.768 Y121.657 E8.19277
G1 X139.229 Y122.619 E8.24568
G1 X138.666 Y123.568 E8.29862
G1 X138.081 Y124.502 E8.35154
G1 X137.473 Y125.423 E8.40450
G1 X136.843 Y126.327 E8.45740
G1 X136.191 Y127.216 E8.51033
G1 X135.517 Y128.090 E8.56329
G1 X134.823 Y128.946 E8.61619
G1 X134.107 Y129.786 E8.66915
G1 X133.372 Y130.608 E8.72209
G1 X132.617 Y131.411 E8.77500
G1 X131.843 Y132.196 E8.82790
G1 X131.050 Y132.961 E8.88080
G1 X130.238 Y133.708 E8.93374
G1 X129.408 Y134.434 E8.98665
G1 X128.560 Y135.140 E9.03963
G1 X127.696 Y135.825 E9.09253
G1 X126.815 Y136.489 E9.14548
G1 X125.919 Y137.131 E9.19841
G1 X125.007 Y137.751 E9.25134
G1 X124.081 Y138.349 E9.30426
G1 X123.139 Y138.924 E9.35720
G1 X122.185 Y139.476 E9.41013
G1 X121.217 Y140.004 E9.46304
G1 X120.237 Y140.509 E9.51596
G1 X119.244 Y140.990 E9.56891
G1 X118.193 Y141.467 E9.62432
G1 X117.179 Y141.898 E9.67721
G1 X116.152 Y142.304 E9.73021
G1 X115.117 Y142.685 E9.78312
G1 X114.074 Y143.040 E9.83603
G1 X113.021 Y143.370 E9.88901
G1 X111.961 Y143.674 E9.94191
G1 X110.894 Y143.953 E9.99487
G1 X109.821 Y144.205 E10.04777
G1 X108.741 Y144.431 E10.10070
G1 X107.657 Y144.631 E10.15362
G1 X106.568 Y144.804 E10.20656
G1 X105.475 Y144.950 E10.25947
G1 X104.379 Y145.070 E10.31240
G1 X103.280 Y145.164 E10.36534
G1 X102.178 Y145.230 E10.41832
G1 X101.077 Y145.270 E10.47118
G1 X99.975 Y145.283 E10.52410
G1 X98.871 Y145.269 E10.57708
G1 X97.769 Y145.228 E10.63002
G1 X96.670 Y145.160 E10.68287
G1 X95.570 Y145.065 E10.73587
G1 X94.475 Y144.944 E10.78875
G1 X93.361 Y144.793 E10.84270
G1 X91.800 Y144.534 E10.91862
G1 X90.719 Y144.321 E10.97153
G1 X89.642 Y144.082 E11.02447
G1 X88.571 Y143.817 E11.07743
G1 X87.508 Y143.525 E11.13034
G1 X86.452 Y143.209 E11.18325
G1 X85.404 Y142.866 E11.23618
G1 X84.364 Y142.498 E11.28912
G1 X83.334 Y142.104 E11.34206
G1 X82.314 Y141.686 E11.39495
G1 X81.304 Y141.243 E11.44791
G1 X80.305 Y140.775 E11.50085
G1 X79.318 Y140.283 E11.55379
G1 X78.343 Y139.768 E11.60671
G1 X77.381 Y139.229 E11.65963
G1 X76.433 Y138.667 E11.71255
G1 X75.498 Y138.081 E11.76549
G1 X74.578 Y137.473 E11.81841
G1 X73.673 Y136.843 E11.87134
G1 X72.784 Y136.191 E11.92426
G1 X71.910 Y135.517 E11.97722
G1 X71.054 Y134.823 E12.03013
G1 X70.214 Y134.107 E12.08310
G1 X69.392 Y133.372 E12.13602
G1 X68.589 Y132.617 E12.18895
G1 X67.804 Y131.843 E12.24185
G1 X67.038 Y131.049 E12.29478
G1 X66.292 Y130.238 E12.34769
G1 X65.566 Y129.408 E12.40060
G1 X64.860 Y128.560 E12.45359
G1 X64.175 Y127.697 E12.50648
G1 X63.511 Y126.815 E12.55944
G1 X62.869 Y125.919 E12.61237
G1 X62.249 Y125.007 E12.66529
G1 X61.651 Y124.080 E12.71823
G1 X61.076 Y123.139 E12.77115
G1 X60.524 Y122.185 E12.82408
G1 X59.996 Y121.217 E12.87700
G1 X59.491 Y120.237 E12.92991
G1 X59.010 Y119.244 E12.98286
G1 X58.533 Y118.193 E13.03828
G1 X58.102 Y117.178 E13.09119
G1 X57.696 Y116.152 E13.14416
G1 X57.315 Y115.117 E13.19711
G1 X56.960 Y114.074 E13.24998
G1 X56.630 Y113.021 E13.30296
G1 X56.326 Y111.961 E13.35587
G1 X56.047 Y110.894 E13.40881
G1 X55.795 Y109.820 E13.46173
G1 X55.569 Y108.741 E13.51465
G1 X55.369 Y107.656 E13.56759
G1 X55.196 Y106.568 E13.62051
G1 X55.049 Y105.474 E13.67346
G1 X54.930 Y104.379 E13.72635
G1 X54.836 Y103.279 E13.77931
G1 X54.770 Y102.178 E13.83227
G1 X54.730 Y101.077 E13.88513
G1 X54.717 Y99.974 E13.93808
G1 X54.731 Y98.871 E13.99103
G1 X54.772 Y97.769 E14.04398
G1 X54.840 Y96.669 E14.09686
G1 X54.935 Y95.570 E14.14982
G1 X55.056 Y94.474 E14.20272
G1 X55.204 Y93.381 E14.25568
G1 X55.378 Y92.292 E14.30861
G1 X55.579 Y91.208 E14.36152
G1 X55.806 Y90.129 E14.41446
G1 X56.060 Y89.055 E14.46742
G1 X56.339 Y87.989 E14.52033
G1 X56.645 Y86.929 E14.57324
G1 X56.976 Y85.877 E14.62617
G1 X57.333 Y84.834 E14.67911
G1 X57.715 Y83.799 E14.73205
G1 X58.121 Y82.775 E14.78494
G1 X58.554 Y81.760 E14.83790
G1 X59.010 Y80.756 E14.89083
G1 X59.491 Y79.763 E14.94379
G1 X59.996 Y78.783 E14.99670
G1 X60.524 Y77.815 E15.04962
G1 X61.076 Y76.861 E15.10254
G1 X61.651 Y75.919 E15.15548
G1 X62.249 Y74.993 E15.20840
G1 X62.869 Y74.081 E15.26133
G1 X63.511 Y73.184 E15.31426
G1 X64.175 Y72.303 E15.36721
G1 X64.860 Y71.440 E15.42011
G1 X65.566 Y70.592 E15.47309
G1 X66.292 Y69.762 E15.52601
G1 X67.039 Y68.950 E15.57894
G1 X68.115 Y67.847 E15.65292
G1 X68.611 Y68.258 F7800.000
G1 F1800
G1 X69.393 Y67.503 E15.70508
G1 X70.193 Y66.767 E15.75726
G1 X71.011 Y66.052 E15.80943
G1 X71.847 Y65.355 E15.86165
G1 X72.699 Y64.680 E15.91381
G1 X73.567 Y64.026 E15.96600
G1 X74.451 Y63.393 E16.01819
G1 X75.350 Y62.781 E16.07036
G1 X76.263 Y62.192 E16.12254
G1 X77.191 Y61.625 E16.17473
G1 X78.132 Y61.081 E16.22690
G1 X79.086 Y60.561 E16.27907
G1 X80.053 Y60.063 E16.33124
G1 X81.032 Y59.589 E16.38343
G1 X82.061 Y59.121 E16.43773
G1 X83.062 Y58.697 E16.48990
G1 X84.073 Y58.296 E16.54211
G1 X85.094 Y57.921 E16.59431
G1 X86.122 Y57.571 E16.64644
G1 X87.160 Y57.245 E16.69866
G1 X88.205 Y56.945 E16.75082
G1 X89.257 Y56.671 E16.80302
G1 X90.315 Y56.422 E16.85517
G1 X91.379 Y56.199 E16.90735
G1 X92.448 Y56.002 E16.95955
G1 X93.522 Y55.831 E17.01171
G1 X94.600 Y55.687 E17.06390
G1 X95.680 Y55.568 E17.11606
G1 X96.764 Y55.476 E17.16827
G1 X97.849 Y55.411 E17.22047
G1 X98.934 Y55.371 E17.27258
G1 X100.022 Y55.359 E17.32478
G1 X101.109 Y55.373 E17.37699
G1 X102.196 Y55.413 E17.42918
G1 X103.280 Y55.479 E17.48132
G1 X104.364 Y55.573 E17.53353
G1 X105.444 Y55.692 E17.58568
G1 X106.542 Y55.841 E17.63886
G1 X108.087 Y56.097 E17.71403
G1 X109.153 Y56.307 E17.76619
G1 X110.215 Y56.543 E17.81838
G1 X111.270 Y56.805 E17.87058
G1 X112.319 Y57.092 E17.92275
G1 X113.359 Y57.404 E17.97491
G1 X114.393 Y57.743 E18.02709
G1 X115.418 Y58.106 E18.07928
G1 X116.433 Y58.493 E18.13147
G1 X117.439 Y58.906 E18.18362
G1 X118.435 Y59.343 E18.23582
G1 X119.419 Y59.804 E18.28801
G1 X120.393 Y60.289 E18.34020
G1 X121.353 Y60.797 E18.39237
G1 X122.301 Y61.328 E18.44454
G1 X123.236 Y61.883 E18.49672
G1 X124.158 Y62.460 E18.54890
G1 X125.065 Y63.059 E18.60108
G1 X125.957 Y63.681 E18.65325
G1 X126.834 Y64.324 E18.70543
G1 X127.695 Y64.988 E18.75764
G1 X128.539 Y65.672 E18.80979
G1 X129.367 Y66.378 E18.86201
G1 X130.177 Y67.103 E18.91418
G1 X130.969 Y67.848 E18.96636
G1 X131.742 Y68.611 E19.01852
G1 X132.497 Y69.393 E19.07069
G1 X133.233 Y70.193 E19.12286
G1 X133.948 Y71.011 E19.17503
G1 X134.645 Y71.847 E19.22725
G1 X135.320 Y72.699 E19.27940
G1 X135.974 Y73.567 E19.33160
G1 X136.607 Y74.451 E19.38378
G1 X137.219 Y75.350 E19.43596
G1 X137.808 Y76.264 E19.48816
G1 X138.375 Y77.191 E19.54032
G1 X138.919 Y78.132 E19.59250
G1 X139.439 Y79.086 E19.64467
G1 X139.937 Y80.053 E19.69683
G1 X140.411 Y81.032 E19.74903
G1 X140.879 Y82.062 E19.80333
G1 X141.303 Y83.062 E19.85550
G1 X141.704 Y84.073 E19.90771
G1 X142.079 Y85.094 E19.95991
G1 X142.429 Y86.122 E20.01203
G1 X142.755 Y87.160 E20.06425
G1 X143.055 Y88.205 E20.11642
G1 X143.329 Y89.257 E20.16861
G1 X143.578 Y90.315 E20.22078
G1 X143.801 Y91.379 E20.27295
G1 X143.998 Y92.448 E20.32514
G1 X144.169 Y93.522 E20.37731
G1 X144.313 Y94.600 E20.42951
G1 X144.432 Y95.680 E20.48166
G1 X144.524 Y96.764 E20.53386
G1 X144.589 Y97.849 E20.58607
G1 X144.629 Y98.935 E20.63819
G1 X144.641 Y100.022 E20.69039
G1 X144.627 Y101.109 E20.74258
G1 X144.587 Y102.196 E20.79478
G1 X144.521 Y103.280 E20.84691
G1 X144.427 Y104.364 E20.89913
G1 X144.308 Y105.444 E20.95128
G1 X144.162 Y106.522 E21.00348
G1 X143.990 Y107.595 E21.05566
G1 X143.693 Y109.153 E21.13179
G1 X143.457 Y110.215 E21.18398
G1 X143.195 Y111.270 E21.23618
G1 X142.908 Y112.319 E21.28837
G1 X142.596 Y113.359 E21.34051
G1 X142.257 Y114.393 E21.39269
G1 X141.894 Y115.418 E21.44488
G1 X141.506 Y116.434 E21.49709
G1 X141.094 Y117.439 E21.54922
G1 X140.657 Y118.435 E21.60142
G1 X140.196 Y119.420 E21.65362
G1 X139.711 Y120.393 E21.70582
G1 X139.203 Y121.353 E21.75797
G1 X138.672 Y122.301 E21.81014
G1 X138.117 Y123.237 E21.86233
G1 X137.540 Y124.158 E21.91450
G1 X136.940 Y125.065 E21.96671
G1 X136.319 Y125.957 E22.01886
G1 X135.676 Y126.834 E22.07104
G1 X135.012 Y127.695 E22.12324
G1 X134.327 Y128.539 E22.17540
G1 X133.622 Y129.367 E22.22761
G1 X132.897 Y130.177 E22.27980
G1 X132.152 Y130.969 E22.33196
G1 X131.389 Y131.742 E22.38411
G1 X130.607 Y132.497 E22.43627
G1 X129.807 Y133.233 E22.48846
G1 X128.989 Y133.948 E22.54062
G1 X128.153 Y134.645 E22.59284
G1 X127.301 Y135.320 E22.64500
G1 X126.433 Y135.974 E22.69720
G1 X125.549 Y136.607 E22.74938
G1 X124.650 Y137.219 E22.80156
G1 X123.737 Y137.808 E22.85373
G1 X122.809 Y138.375 E22.90592
G1 X121.868 Y138.919 E22.95809
G1 X120.914 Y139.439 E23.01026
G1 X119.947 Y139.937 E23.06243
G1 X118.968 Y140.411 E23.11463
G1 X117.938 Y140.879 E23.16892
G1 X116.938 Y141.303 E23.22107
G1 X115.926 Y141.704 E23.27330
G1 X114.906 Y142.079 E23.32547
G1 X113.878 Y142.429 E23.37763
G1 X112.840 Y142.755 E23.42985
G1 X111.795 Y143.055 E23.48201
G1 X110.743 Y143.329 E23.53421
G1 X109.685 Y143.578 E23.58637
G1 X108.621 Y143.801 E23.63855
G1 X107.552 Y143.998 E23.69072
G1 X106.478 Y144.169 E23.74291
G1 X105.401 Y144.313 E23.79508
G1 X104.320 Y144.432 E23.84725
G1 X103.237 Y144.524 E23.89944
G1 X102.151 Y144.589 E23.95166
G1 X101.065 Y144.629 E24.00379
G1 X99.979 Y144.641 E24.05596
G1 X98.891 Y144.627 E24.10818
G1 X97.804 Y144.587 E24.16037
G1 X96.720 Y144.521 E24.21248
G1 X95.636 Y144.427 E24.26472
G1 X94.556 Y144.308 E24.31686
G1 X93.458 Y144.159 E24.37005
G1 X91.913 Y143.903 E24.44522
G1 X90.847 Y143.693 E24.49739
G1 X89.785 Y143.457 E24.54957
G1 X88.730 Y143.195 E24.60178
G1 X87.681 Y142.908 E24.65395
G1 X86.641 Y142.595 E24.70610
G1 X85.607 Y142.257 E24.75829
G1 X84.582 Y141.894 E24.81047
G1 X83.567 Y141.507 E24.86266
G1 X82.561 Y141.094 E24.91481
G1 X81.565 Y140.657 E24.96701
G1 X80.581 Y140.196 E25.01920
G1 X79.607 Y139.711 E25.07139
G1 X78.647 Y139.203 E25.12357
G1 X77.699 Y138.672 E25.17573
G1 X76.764 Y138.117 E25.22791
G1 X75.842 Y137.540 E25.28009
G1 X74.935 Y136.941 E25.33227
G1 X74.043 Y136.319 E25.38445
G1 X73.167 Y135.676 E25.43662
G1 X72.305 Y135.012 E25.48883
G1 X71.461 Y134.328 E25.54099
G1 X70.633 Y133.622 E25.59321
G1 X69.823 Y132.897 E25.64538
G1 X69.031 Y132.152 E25.69755
G1 X68.258 Y131.389 E25.74971
G1 X67.503 Y130.607 E25.80189
G1 X66.767 Y129.807 E25.85405
G1 X66.052 Y128.989 E25.90622
G1 X65.355 Y128.153 E25.95845
G1 X64.680 Y127.301 E26.01060
G1 X64.026 Y126.433 E26.06280
G1 X63.393 Y125.549 E26.11498
G1 X62.781 Y124.650 E26.16715
G1 X62.192 Y123.736 E26.21934
G1 X61.625 Y122.809 E26.27152
G1 X61.081 Y121.868 E26.32369
G1 X60.560 Y120.913 E26.37587
G1 X60.063 Y119.947 E26.42803
G1 X59.589 Y118.968 E26.48022
G1 X59.121 Y117.938 E26.53452
G1 X58.697 Y116.938 E26.58669
G1 X58.296 Y115.927 E26.63890
G1 X57.921 Y114.906 E26.69110
G1 X57.571 Y113.878 E26.74323
G1 X57.245 Y112.840 E26.79545
G1 X56.945 Y111.795 E26.84762
G1 X56.671 Y110.743 E26.89981
G1 X56.422 Y109.685 E26.95197
G1 X56.199 Y108.621 E27.00414
G1 X56.002 Y107.552 E27.05633
G1 X55.831 Y106.478 E27.10851
G1 X55.687 Y105.400 E27.16070
G1 X55.568 Y104.320 E27.21285
G1 X55.476 Y103.236 E27.26506
G1 X55.411 Y102.151 E27.31726
G1 X55.371 Y101.066 E27.36938
G1 X55.359 Y99.978 E27.42158
G1 X55.373 Y98.891 E27.47378
G1 X55.413 Y97.804 E27.52597
G1 X55.479 Y96.720 E27.57811
G1 X55.573 Y95.636 E27.63032
G1 X55.692 Y94.556 E27.68247
G1 X55.838 Y93.478 E27.73467
G1 X56.010 Y92.405 E27.78686
G1 X56.208 Y91.336 E27.83902
G1 X56.432 Y90.272 E27.89121
G1 X56.681 Y89.214 E27.94341
G1 X56.957 Y88.162 E27.99558
G1 X57.258 Y87.118 E28.04774
G1 X57.584 Y86.081 E28.09992
G1 X57.936 Y85.052 E28.15211
G1 X58.312 Y84.032 E28.20430
G1 X58.713 Y83.022 E28.25645
G1 X59.139 Y82.021 E28.30865
G1 X59.589 Y81.032 E28.36083
G1 X60.063 Y80.053 E28.41303
G1 X60.561 Y79.086 E28.46520
G1 X61.081 Y78.132 E28.51737
G1 X61.625 Y77.191 E28.56954
G1 X62.192 Y76.263 E28.62173
G1 X62.781 Y75.350 E28.67391
G1 X63.393 Y74.451 E28.72608
G1 X64.026 Y73.567 E28.77827
G1 X64.680 Y72.699 E28.83046
G1 X65.355 Y71.847 E28.88262
G1 X66.052 Y71.011 E28.93484
G1 X66.767 Y70.193 E28.98701
G1 X67.503 Y69.393 E29.03919
G1 X68.568 Y68.300 E29.11243
G1 E27.11243 F2400.00000
G92 E0
