; generated by Slic3r 1.3.0-dev on 2017-11-04 at 10:01:06

; external perimeters extrusion width = 0.40mm (1.43mm^3/s)
; perimeters extrusion width = 0.67mm (5.03mm^3/s)
; infill extrusion width = 0.67mm (6.28mm^3/s)
; solid infill extrusion width = 0.67mm (2.51mm^3/s)
; top infill extrusion width = 0.67mm (1.88mm^3/s)

M104 S200 ; set temperature
G28 ; home all axes
G1 Z5 F5000 ; lift nozzle

; Filament gcode

M109 S200 ; set temperature and wait for it to be reached
G21 ; set units to millimeters
G90 ; use absolute coordinates
M82 ; use absolute distances for extrusion
G92 E0
G1 Z0.180 F7800.000
G1 E-2.00000 F2400.00000
G92 E0
G1 X81.505 Y81.633 F7800.000
G1 E2.00000 F2400.00000
G1 F1800
G1 X82.421 Y80.755 E2.06086
G1 X83.379 Y79.921 E2.12184
G1 X84.376 Y79.136 E2.18276
G1 X85.411 Y78.400 E2.24372
G1 X86.480 Y77.715 E2.30464
G1 X87.581 Y77.084 E2.36556
G1 X88.711 Y76.506 E2.42647
G1 X89.869 Y75.984 E2.48741
G1 X91.050 Y75.520 E2.54833
G1 X92.251 Y75.113 E2.60920
G1 X93.473 Y74.765 E2.67017
G1 X94.709 Y74.478 E2.73108
G1 X95.958 Y74.250 E2.79203
G1 X97.216 Y74.084 E2.85294
G1 X98.482 Y73.979 E2.91389
G1 X99.750 Y73.936 E2.97483
G1 X101.019 Y73.955 E3.03574
G1 X102.287 Y74.035 E3.09671
G1 X103.548 Y74.177 E3.15761
G1 X104.802 Y74.381 E3.21857
G1 X106.043 Y74.645 E3.27948
G1 X107.271 Y74.969 E3.34043
G1 X108.351 Y75.309 E3.39481
G1 X108.950 Y75.520 E3.42528
G1 X110.131 Y75.984 E3.48620
G1 X111.289 Y76.506 E3.54715
G1 X112.419 Y77.084 E3.60805
G1 X113.520 Y77.715 E3.66897
G1 X114.589 Y78.400 E3.72990
G1 X115.624 Y79.136 E3.79085
G1 X116.621 Y79.921 E3.85177
G1 X117.579 Y80.755 E3.91275
G1 X118.494 Y81.633 E3.97361
G1 X119.368 Y82.557 E4.03463
G1 X120.193 Y83.519 E4.09548
G1 X120.972 Y84.523 E4.15646
G1 X121.700 Y85.561 E4.21734
G1 X122.378 Y86.635 E4.27830
G1 X123.002 Y87.741 E4.33926
G1 X123.572 Y88.875 E4.40017
G1 X124.086 Y90.037 E4.46114
G1 X124.542 Y91.220 E4.52199
G1 X124.941 Y92.426 E4.58296
G1 X125.280 Y93.649 E4.64386
G1 X125.559 Y94.888 E4.70482
G1 X125.777 Y96.138 E4.76573
G1 X125.935 Y97.398 E4.82669
G1 X126.031 Y98.663 E4.88757
G1 X126.065 Y99.932 E4.94853
G1 X126.037 Y101.201 E5.00943
G1 X125.948 Y102.468 E5.07038
G1 X125.797 Y103.728 E5.13132
G1 X125.559 Y105.113 E5.19873
G1 X125.280 Y106.351 E5.25968
G1 X124.941 Y107.574 E5.32057
G1 X124.542 Y108.780 E5.38155
G1 X124.086 Y109.964 E5.44243
G1 X123.572 Y111.125 E5.50338
G1 X123.002 Y112.259 E5.56430
G1 X122.378 Y113.365 E5.62524
G1 X121.701 Y114.439 E5.68620
G1 X120.972 Y115.477 E5.74708
G1 X120.193 Y116.481 E5.80806
G1 X119.368 Y117.443 E5.86891
G1 X118.494 Y118.367 E5.92992
G1 X117.579 Y119.245 E5.99079
G1 X116.621 Y120.079 E6.05177
G1 X115.623 Y120.864 E6.11269
G1 X114.589 Y121.600 E6.17361
G1 X113.520 Y122.285 E6.23455
G1 X112.419 Y122.916 E6.29548
G1 X111.289 Y123.494 E6.35639
G1 X110.131 Y124.016 E6.41733
G1 X108.950 Y124.480 E6.47826
G1 X107.749 Y124.887 E6.53913
G1 X106.527 Y125.235 E6.60009
G1 X105.292 Y125.522 E6.66099
G1 X104.042 Y125.750 E6.72194
G1 X102.784 Y125.916 E6.78287
G1 X101.519 Y126.021 E6.84380
G1 X100.250 Y126.064 E6.90475
G1 X98.980 Y126.045 E6.96567
G1 X97.713 Y125.965 E7.02662
G1 X96.452 Y125.823 E7.08754
G1 X95.198 Y125.619 E7.14849
G1 X93.957 Y125.355 E7.20940
G1 X92.729 Y125.031 E7.27036
G1 X91.648 Y124.691 E7.32474
G1 X91.050 Y124.480 E7.35520
G1 X89.869 Y124.016 E7.41612
G1 X88.711 Y123.494 E7.47707
G1 X87.581 Y122.916 E7.53798
G1 X86.480 Y122.285 E7.59890
G1 X85.411 Y121.600 E7.65982
G1 X84.377 Y120.864 E7.72077
G1 X83.379 Y120.079 E7.78169
G1 X82.421 Y119.245 E7.84267
G1 X81.506 Y118.367 E7.90354
G1 X80.632 Y117.443 E7.96456
G1 X79.807 Y116.481 E8.02540
G1 X79.028 Y115.477 E8.08638
G1 X78.299 Y114.439 E8.14727
G1 X77.622 Y113.365 E8.20822
G1 X76.998 Y112.259 E8.26916
G1 X76.428 Y111.125 E8.33009
G1 X75.914 Y109.963 E8.39104
G1 X75.458 Y108.780 E8.45192
G1 X75.059 Y107.574 E8.51289
G1 X74.720 Y106.351 E8.57378
G1 X74.441 Y105.112 E8.63473
G1 X74.223 Y103.862 E8.69565
G1 X74.065 Y102.602 E8.75659
G1 X73.969 Y101.337 E8.81750
G1 X73.935 Y100.068 E8.87844
G1 X73.963 Y98.799 E8.93936
G1 X74.052 Y97.532 E9.00030
G1 X74.203 Y96.272 E9.06124
G1 X74.415 Y95.021 E9.12213
G1 X74.688 Y93.780 E9.18310
G1 X75.021 Y92.556 E9.24402
G1 X75.413 Y91.348 E9.30496
G1 X75.863 Y90.161 E9.36587
G1 X76.371 Y88.997 E9.42682
G1 X76.935 Y87.860 E9.48774
G1 X77.553 Y86.752 E9.54867
G1 X78.224 Y85.675 E9.60958
G1 X78.947 Y84.632 E9.67049
G1 X79.721 Y83.625 E9.73145
G1 X80.542 Y82.657 E9.79239
G1 X81.463 Y81.676 E9.85697
G1 X81.956 Y82.089 F7800.000
G1 F1800
G1 X82.849 Y81.233 E9.91634
G1 X83.784 Y80.419 E9.97581
G1 X84.756 Y79.653 E10.03523
G1 X85.765 Y78.935 E10.09469
G1 X86.807 Y78.267 E10.15411
G1 X87.881 Y77.650 E10.21354
G1 X88.983 Y77.087 E10.27294
G1 X90.112 Y76.578 E10.33239
G1 X91.264 Y76.124 E10.39180
G1 X92.436 Y75.728 E10.45119
G1 X93.627 Y75.388 E10.51065
G1 X94.833 Y75.107 E10.57007
G1 X96.051 Y74.885 E10.62952
G1 X97.279 Y74.722 E10.68893
G1 X98.513 Y74.620 E10.74837
G1 X99.750 Y74.577 E10.80781
G1 X100.988 Y74.595 E10.86722
G1 X102.225 Y74.674 E10.92669
G1 X103.454 Y74.812 E10.98609
G1 X104.677 Y75.010 E11.04555
G1 X105.888 Y75.267 E11.10497
G1 X107.086 Y75.584 E11.16441
G1 X108.152 Y75.919 E11.21805
G1 X108.736 Y76.124 E11.24777
G1 X109.888 Y76.578 E11.30719
G1 X111.017 Y77.087 E11.36664
G1 X112.119 Y77.650 E11.42605
G1 X113.193 Y78.267 E11.48547
G1 X114.235 Y78.935 E11.54490
G1 X115.244 Y79.653 E11.60435
G1 X116.216 Y80.419 E11.66377
G1 X117.151 Y81.233 E11.72324
G1 X118.044 Y82.089 E11.78262
G1 X118.895 Y82.990 E11.84212
G1 X119.700 Y83.929 E11.90148
G1 X120.460 Y84.908 E11.96096
G1 X121.170 Y85.922 E12.02034
G1 X121.831 Y86.969 E12.07980
G1 X122.439 Y88.048 E12.13926
G1 X122.995 Y89.155 E12.19867
G1 X123.496 Y90.288 E12.25814
G1 X123.940 Y91.442 E12.31750
G1 X124.329 Y92.618 E12.37697
G1 X124.659 Y93.811 E12.43637
G1 X124.931 Y95.020 E12.49583
G1 X125.144 Y96.239 E12.55524
G1 X125.297 Y97.468 E12.61470
G1 X125.391 Y98.702 E12.67408
G1 X125.424 Y99.940 E12.73354
G1 X125.397 Y101.178 E12.79294
G1 X125.309 Y102.413 E12.85239
G1 X125.161 Y103.643 E12.91183
G1 X124.931 Y104.981 E12.97700
G1 X124.659 Y106.189 E13.03644
G1 X124.329 Y107.382 E13.09584
G1 X123.940 Y108.558 E13.15531
G1 X123.495 Y109.713 E13.21470
G1 X122.994 Y110.846 E13.27415
G1 X122.439 Y111.952 E13.33357
G1 X121.831 Y113.031 E13.39301
G1 X121.170 Y114.078 E13.45246
G1 X120.460 Y115.092 E13.51185
G1 X119.700 Y116.071 E13.57133
G1 X118.895 Y117.010 E13.63069
G1 X118.044 Y117.911 E13.69019
G1 X117.151 Y118.767 E13.74957
G1 X116.216 Y119.581 E13.80904
G1 X115.244 Y120.347 E13.86846
G1 X114.235 Y121.065 E13.92789
G1 X113.193 Y121.733 E13.98733
G1 X112.119 Y122.350 E14.04676
G1 X111.017 Y122.913 E14.10617
G1 X109.888 Y123.422 E14.16561
G1 X108.736 Y123.876 E14.22504
G1 X107.564 Y124.273 E14.28442
G1 X106.373 Y124.612 E14.34388
G1 X105.167 Y124.893 E14.40328
G1 X103.949 Y125.115 E14.46273
G1 X102.721 Y125.278 E14.52216
G1 X101.487 Y125.380 E14.58159
G1 X100.250 Y125.423 E14.64104
G1 X99.012 Y125.405 E14.70046
G1 X97.776 Y125.326 E14.75990
G1 X96.545 Y125.188 E14.81933
G1 X95.323 Y124.990 E14.87878
G1 X94.112 Y124.733 E14.93819
G1 X92.914 Y124.416 E14.99765
G1 X91.848 Y124.081 E15.05128
G1 X91.264 Y123.876 E15.08099
G1 X90.112 Y123.422 E15.14042
G1 X88.983 Y122.913 E15.19987
G1 X87.881 Y122.350 E15.25927
G1 X86.807 Y121.733 E15.31870
G1 X85.765 Y121.065 E15.37812
G1 X84.756 Y120.347 E15.43757
G1 X83.784 Y119.581 E15.49699
G1 X82.849 Y118.767 E15.55647
G1 X81.956 Y117.911 E15.61584
G1 X81.104 Y117.010 E15.67536
G1 X80.300 Y116.071 E15.73471
G1 X79.540 Y115.092 E15.79418
G1 X78.830 Y114.078 E15.85358
G1 X78.169 Y113.031 E15.91303
G1 X77.561 Y111.952 E15.97247
G1 X77.005 Y110.845 E16.03189
G1 X76.505 Y109.713 E16.09135
G1 X76.060 Y108.558 E16.15073
G1 X75.671 Y107.382 E16.21019
G1 X75.341 Y106.189 E16.26959
G1 X75.069 Y104.981 E16.32904
G1 X74.856 Y103.761 E16.38846
G1 X74.703 Y102.532 E16.44790
G1 X74.609 Y101.298 E16.50731
G1 X74.576 Y100.060 E16.56675
G1 X74.603 Y98.822 E16.62617
G1 X74.691 Y97.587 E16.68561
G1 X74.839 Y96.357 E16.74506
G1 X75.046 Y95.137 E16.80445
G1 X75.312 Y93.927 E16.86391
G1 X75.637 Y92.733 E16.92333
G1 X76.020 Y91.555 E16.98278
G1 X76.459 Y90.398 E17.04219
G1 X76.955 Y89.263 E17.10164
G1 X77.505 Y88.153 E17.16106
G1 X78.108 Y87.072 E17.22049
G1 X78.764 Y86.022 E17.27991
G1 X79.469 Y85.005 E17.33932
G1 X80.224 Y84.023 E17.39877
G1 X81.025 Y83.079 E17.45822
G1 X81.914 Y82.132 E17.52054
G1 X82.407 Y82.546 F7800.000
G1 F1800
G1 X83.277 Y81.711 E17.57842
G1 X84.188 Y80.917 E17.63639
G1 X85.135 Y80.170 E17.69431
G1 X86.119 Y79.470 E17.75226
G1 X87.135 Y78.818 E17.81019
G1 X88.181 Y78.217 E17.86812
G1 X89.255 Y77.668 E17.92603
G1 X90.356 Y77.171 E17.98397
G1 X91.478 Y76.729 E18.04189
G1 X92.621 Y76.342 E18.09978
G1 X93.782 Y76.010 E18.15774
G1 X94.957 Y75.736 E18.21566
G1 X96.145 Y75.519 E18.27360
G1 X97.341 Y75.361 E18.33152
G1 X98.544 Y75.260 E18.38946
G1 X99.750 Y75.219 E18.44740
G1 X100.957 Y75.236 E18.50532
G1 X102.162 Y75.312 E18.56328
G1 X103.361 Y75.446 E18.62119
G1 X104.553 Y75.639 E18.67914
G1 X105.733 Y75.890 E18.73706
G1 X106.901 Y76.198 E18.79500
G1 X107.952 Y76.528 E18.84790
G1 X108.521 Y76.729 E18.87686
G1 X109.644 Y77.171 E18.93479
G1 X110.745 Y77.668 E18.99274
G1 X111.819 Y78.217 E19.05065
G1 X112.865 Y78.818 E19.10857
G1 X113.881 Y79.470 E19.16650
G1 X114.865 Y80.170 E19.22445
G1 X115.812 Y80.917 E19.28237
G1 X116.723 Y81.711 E19.34034
G1 X117.593 Y82.546 E19.39822
G1 X118.423 Y83.424 E19.45622
G1 X119.207 Y84.340 E19.51409
G1 X119.948 Y85.294 E19.57206
G1 X120.639 Y86.282 E19.62995
G1 X121.283 Y87.304 E19.68791
G1 X121.876 Y88.355 E19.74586
G1 X122.417 Y89.434 E19.80378
G1 X122.905 Y90.538 E19.86174
G1 X123.338 Y91.664 E19.91961
G1 X123.717 Y92.811 E19.97758
G1 X124.039 Y93.973 E20.03548
G1 X124.304 Y95.151 E20.09344
G1 X124.511 Y96.340 E20.15135
G1 X124.660 Y97.538 E20.20931
G1 X124.750 Y98.741 E20.26720
G1 X124.782 Y99.948 E20.32515
G1 X124.756 Y101.154 E20.38306
G1 X124.670 Y102.358 E20.44101
G1 X124.526 Y103.557 E20.49895
G1 X124.304 Y104.849 E20.56187
G1 X124.039 Y106.027 E20.61981
G1 X123.717 Y107.189 E20.67772
G1 X123.338 Y108.336 E20.73568
G1 X122.905 Y109.462 E20.79358
G1 X122.417 Y110.566 E20.85153
G1 X121.876 Y111.645 E20.90944
G1 X121.283 Y112.696 E20.96738
G1 X120.639 Y113.718 E21.02534
G1 X119.948 Y114.706 E21.08323
G1 X119.207 Y115.660 E21.14120
G1 X118.423 Y116.576 E21.19907
G1 X117.593 Y117.454 E21.25707
G1 X116.723 Y118.290 E21.31495
G1 X115.812 Y119.083 E21.37292
G1 X114.865 Y119.830 E21.43084
G1 X113.881 Y120.530 E21.48877
G1 X112.865 Y121.182 E21.54671
G1 X111.819 Y121.783 E21.60464
G1 X110.745 Y122.332 E21.66255
G1 X109.644 Y122.829 E21.72050
G1 X108.521 Y123.271 E21.77843
G1 X107.952 Y123.472 E21.80739
G1 X106.901 Y123.802 E21.86028
G1 X105.733 Y124.110 E21.91823
G1 X104.553 Y124.361 E21.97615
G1 X103.361 Y124.553 E22.03410
G1 X102.162 Y124.688 E22.09201
G1 X100.957 Y124.764 E22.14997
G1 X99.750 Y124.781 E22.20789
G1 X98.544 Y124.740 E22.26582
G1 X97.341 Y124.639 E22.32377
G1 X96.145 Y124.481 E22.38169
G1 X94.957 Y124.264 E22.43964
G1 X93.782 Y123.990 E22.49755
G1 X92.621 Y123.658 E22.55550
G1 X91.479 Y123.271 E22.61339
G1 X90.356 Y122.829 E22.67132
G1 X89.255 Y122.332 E22.72927
G1 X88.181 Y121.783 E22.78718
G1 X87.135 Y121.182 E22.84510
G1 X86.119 Y120.530 E22.90303
G1 X85.135 Y119.830 E22.96098
G1 X84.188 Y119.083 E23.01890
G1 X83.277 Y118.290 E23.07687
G1 X82.407 Y117.454 E23.13475
G1 X81.577 Y116.576 E23.19276
G1 X80.793 Y115.660 E23.25062
G1 X80.052 Y114.706 E23.30859
G1 X79.360 Y113.718 E23.36649
G1 X78.717 Y112.696 E23.42444
G1 X78.124 Y111.645 E23.48238
G1 X77.583 Y110.566 E23.54030
G1 X77.095 Y109.462 E23.59826
G1 X76.662 Y108.336 E23.65614
G1 X76.283 Y107.189 E23.71410
G1 X75.961 Y106.027 E23.77201
G1 X75.696 Y104.849 E23.82996
G1 X75.489 Y103.660 E23.88788
G1 X75.340 Y102.462 E23.94582
G1 X75.250 Y101.259 E24.00373
G1 X75.218 Y100.052 E24.06167
G1 X75.244 Y98.846 E24.11959
G1 X75.330 Y97.642 E24.17753
G1 X75.474 Y96.443 E24.23548
G1 X75.676 Y95.254 E24.29338
G1 X75.936 Y94.075 E24.35134
G1 X76.253 Y92.910 E24.40926
G1 X76.627 Y91.762 E24.46720
G1 X77.055 Y90.634 E24.52512
G1 X77.539 Y89.528 E24.58306
G1 X78.075 Y88.447 E24.64099
G1 X78.664 Y87.393 E24.69892
G1 X79.303 Y86.369 E24.75684
G1 X79.991 Y85.378 E24.81475
G1 X80.727 Y84.421 E24.87270
G1 X81.508 Y83.501 E24.93065
G1 X82.365 Y82.588 E24.99072
G1 X82.858 Y83.002 F7800.000
G1 F1800
G1 X83.705 Y82.188 E25.04711
G1 X84.592 Y81.415 E25.10357
G1 X85.515 Y80.687 E25.15999
G1 X86.473 Y80.005 E25.21644
G1 X87.462 Y79.370 E25.27287
G1 X88.481 Y78.784 E25.32930
G1 X89.528 Y78.249 E25.38572
G1 X90.599 Y77.764 E25.44216
G1 X91.693 Y77.333 E25.49858
G1 X92.806 Y76.956 E25.55498
G1 X93.937 Y76.633 E25.61143
G1 X95.081 Y76.365 E25.66785
G1 X96.238 Y76.154 E25.72430
G1 X97.403 Y75.999 E25.78072
G1 X98.575 Y75.901 E25.83716
G1 X99.750 Y75.860 E25.89360
G1 X100.926 Y75.877 E25.95002
G1 X102.100 Y75.950 E26.00647
G1 X103.268 Y76.081 E26.06289
G1 X104.429 Y76.269 E26.11934
G1 X105.579 Y76.512 E26.17576
G1 X106.716 Y76.812 E26.23220
G1 X107.753 Y77.138 E26.28435
G1 X108.307 Y77.333 E26.31257
G1 X109.401 Y77.764 E26.36900
G1 X110.472 Y78.249 E26.42544
G1 X111.519 Y78.784 E26.48186
G1 X112.538 Y79.370 E26.53828
G1 X113.527 Y80.005 E26.59471
G1 X114.485 Y80.687 E26.65116
G1 X115.408 Y81.415 E26.70758
G1 X116.295 Y82.188 E26.76405
G1 X117.142 Y83.002 E26.82044
G1 X117.950 Y83.858 E26.87692
G1 X118.714 Y84.750 E26.93330
G1 X119.435 Y85.680 E26.98977
G1 X120.109 Y86.642 E27.04617
G1 X120.736 Y87.638 E27.10262
G1 X121.313 Y88.662 E27.15907
G1 X121.840 Y89.713 E27.21549
G1 X122.315 Y90.789 E27.27195
G1 X122.737 Y91.886 E27.32833
G1 X123.105 Y93.003 E27.38479
G1 X123.418 Y94.136 E27.44120
G1 X123.676 Y95.283 E27.49765
G1 X123.877 Y96.441 E27.55407
G1 X124.022 Y97.608 E27.61053
G1 X124.110 Y98.780 E27.66693
G1 X124.141 Y99.956 E27.72337
G1 X124.115 Y101.131 E27.77979
G1 X124.031 Y102.304 E27.83623
G1 X123.890 Y103.471 E27.89267
G1 X123.676 Y104.717 E27.95334
G1 X123.418 Y105.864 E28.00979
G1 X123.105 Y106.997 E28.06620
G1 X122.737 Y108.114 E28.12266
G1 X122.315 Y109.211 E28.17906
G1 X121.840 Y110.287 E28.23551
G1 X121.313 Y111.338 E28.29193
G1 X120.736 Y112.362 E28.34837
G1 X120.109 Y113.358 E28.40482
G1 X119.435 Y114.320 E28.46122
G1 X118.714 Y115.250 E28.51769
G1 X117.950 Y116.142 E28.57406
G1 X117.142 Y116.998 E28.63055
G1 X116.295 Y117.812 E28.68694
G1 X115.408 Y118.585 E28.74341
G1 X114.485 Y119.313 E28.79983
G1 X113.528 Y119.995 E28.85626
G1 X112.538 Y120.630 E28.91270
G1 X111.519 Y121.216 E28.96913
G1 X110.472 Y121.751 E29.02555
G1 X109.401 Y122.236 E29.08199
G1 X108.307 Y122.667 E29.13842
G1 X107.194 Y123.044 E29.19481
G1 X106.063 Y123.367 E29.25127
G1 X104.919 Y123.635 E29.30768
G1 X103.762 Y123.846 E29.36412
G1 X102.597 Y124.001 E29.42055
G1 X101.425 Y124.099 E29.47698
G1 X100.250 Y124.140 E29.53343
G1 X99.074 Y124.123 E29.58986
G1 X97.900 Y124.050 E29.64630
G1 X96.732 Y123.919 E29.70273
G1 X95.571 Y123.731 E29.75917
G1 X94.421 Y123.488 E29.81559
G1 X93.284 Y123.188 E29.87204
G1 X92.247 Y122.862 E29.92419
G1 X91.693 Y122.667 E29.95240
G1 X90.599 Y122.236 E30.00883
G1 X89.528 Y121.751 E30.06528
G1 X88.481 Y121.216 E30.12169
G1 X87.462 Y120.630 E30.17812
G1 X86.473 Y119.995 E30.23455
G1 X85.515 Y119.313 E30.29099
G1 X84.592 Y118.585 E30.34742
G1 X83.705 Y117.812 E30.40388
G1 X82.858 Y116.998 E30.46027
G1 X82.049 Y116.142 E30.51677
G1 X81.286 Y115.250 E30.57314
G1 X80.565 Y114.320 E30.62961
G1 X79.891 Y113.357 E30.68601
G1 X79.264 Y112.362 E30.74246
G1 X78.687 Y111.338 E30.79889
G1 X78.160 Y110.287 E30.85532
G1 X77.685 Y109.211 E30.91177
G1 X77.263 Y108.114 E30.96817
G1 X76.895 Y106.997 E31.02462
G1 X76.582 Y105.864 E31.08103
G1 X76.324 Y104.717 E31.13748
G1 X76.123 Y103.559 E31.19390
G1 X75.978 Y102.392 E31.25034
G1 X75.890 Y101.220 E31.30676
G1 X75.859 Y100.044 E31.36320
G1 X75.885 Y98.869 E31.41962
G1 X75.969 Y97.696 E31.47606
G1 X76.110 Y96.529 E31.53251
G1 X76.307 Y95.370 E31.58891
G1 X76.561 Y94.222 E31.64537
G1 X76.870 Y93.087 E31.70179
